svg/outline/maestro.svg

<svg height="471" viewBox="0 0 750 471" width="750" xmlns="http://www.w3.org/2000/svg"><g fill="#393939"><path d="m697.115385 471h-644.2307696c-29.194186-.031088-52.8528192-23.162714-52.8846154-51.706587v-367.5868262c.0317962-28.5438724 23.6904294-51.67549887 52.8846154-51.7065868h644.2307696c29.194186.03108793 52.852819 23.1627144 52.884615 51.7065868v367.5868262c-.031796 28.543873-23.690429 51.675499-52.884615 51.706587zm-644.2307696-442.7964072c-13.2760757 0-24.0384616 10.5226489-24.0384616 23.502994v367.5868262c0 12.980345 10.7623859 23.502994 24.0384616 23.502994h644.2307696c13.276075 0 24.038461-10.522649 24.038461-23.502994v-367.5868262c0-12.9803451-10.762386-23.502994-24.038461-23.502994z"/><g transform="translate(154 60)"><path d="m132.787288 349.030169v-23.242457c0-8.75572-5.618644-14.645932-14.561652-14.720848-4.682204-.074915-9.607882 1.395297-13.016526 6.555085-2.556483-4.10161-6.5550846-6.555085-12.2392795-6.555085-4.3271447-.231045-8.4543263 1.841448-10.8533474 5.450085v-4.56983h-8.0627543v37.036228h8.1376695v-20.489322c0-6.433347 3.567839-9.841991 9.0647458-9.841991 5.3470762 0 8.0627542 3.483559 8.0627542 9.757712v20.601695h8.1376697v-20.517416c0-6.433347 3.745763-9.841991 9.064746-9.841991 5.496906 0 8.137669 3.483559 8.137669 9.757712v20.601695zm45.398644-18.513432v-18.522796h-8.062754v4.523008c-2.556483-3.333729-6.433347-5.421991-11.696144-5.421991-10.385127 0-18.513432 8.137669-18.513432 19.449873 0 11.312203 8.137669 19.449872 18.513432 19.449872 5.272161 0 9.139661-2.088262 11.696144-5.421991v4.494915h8.062754zm-29.966101 0c0-6.508262 4.260805-11.855339 11.237288-11.855339 6.667457 0 11.153008 5.112966 11.153008 11.855339s-4.494915 11.855339-11.153008 11.855339c-6.995212-.009364-11.256017-5.35644-11.256017-11.864703zm202.383559-19.496695c2.72186-.026821 5.422687.478988 7.950381 1.488941 2.354885.940799 4.502404 2.3343 6.320975 4.10161 1.79147 1.756537 3.211751 3.855114 4.176525 6.171144 2.009605 4.960876 2.009605 10.509124 0 15.47-.964774 2.31603-2.385055 4.414608-4.176525 6.171144-1.818267 1.767692-3.965865 3.161245-6.320975 4.101611-5.119367 1.992993-10.800124 1.992993-15.919491 0-2.350934-.937724-4.492886-2.331744-6.302246-4.101611-1.780656-1.761634-3.193901-3.859219-4.157797-6.171144-2.009604-4.960876-2.009604-10.509124 0-15.47.964336-2.311688 2.377525-4.409191 4.157797-6.171144 1.809516-1.769673 3.951427-3.163665 6.302246-4.10161 2.533533-1.012358 5.240959-1.518211 7.96911-1.488941zm0 7.622627c-1.574887-.013633-3.13711.282267-4.597924.87089-1.376805.552841-2.626012 1.381396-3.670847 2.434746-1.051537 1.075106-1.879122 2.348314-2.434746 3.745763-1.18528 3.099416-1.18528 6.527193 0 9.62661.555179 1.397679 1.382818 2.67097 2.434746 3.745763 1.044835 1.053349 2.294042 1.881905 3.670847 2.434745 2.958673 1.160516 6.246539 1.160516 9.205212 0 1.38058-.556154 2.635288-1.384134 3.689576-2.434745 1.060827-1.071355 1.895214-2.345228 2.453475-3.745763 1.18528-3.099417 1.18528-6.527194 0-9.62661-.558261-1.400535-1.392648-2.674409-2.453475-3.745763-1.054288-1.050611-2.308996-1.878591-3.689576-2.434746-1.463731-.58983-3.029255-.885753-4.607288-.87089zm-128.573305 11.864704c-.074916-11.546314-7.201229-19.449873-17.586356-19.449873-10.843983 0-18.438517 7.903559-18.438517 19.449873 0 11.780424 7.903559 19.449873 18.981652 19.449873 5.618644 0 10.694153-1.395297 15.189068-5.187882l-3.951779-5.965127c-3.059106 2.453146-6.848291 3.817252-10.769068 3.876865-5.187882 0-9.916907-2.397288-11.078093-9.064746h27.503262c.056187-1.011356.149831-2.022712.149831-3.108983zm-27.578178-3.249449c.852161-5.347077 4.10161-8.989831 9.841991-8.989831 5.187882 0 8.52161 3.249449 9.364407 8.989831zm61.514788-5.805932c-3.518392-2.026883-7.495679-3.122732-11.555678-3.183899-4.42 0-7.051398 1.629407-7.051398 4.335721 0 2.481567 2.809322 3.174533 6.274152 3.642754l3.792585.543135c8.062754 1.161187 12.94161 4.569831 12.94161 11.078094 0 7.051398-6.199237 12.089449-16.855932 12.089449-6.040042 0-11.621229-1.554492-16.041229-4.803941l3.792585-6.274152c3.553716 2.627927 7.886867 3.986571 12.30483 3.858135 5.496907 0 8.427966-1.629407 8.427966-4.494915 0-2.088263-2.088262-3.249449-6.508262-3.876865l-3.792585-.543135c-8.2875-1.161187-12.782415-4.878856-12.782415-10.928263 0-7.360424 6.040042-11.855339 15.413813-11.855339 5.890212 0 11.237288 1.320382 15.104788 3.876865zm38.721822-2.125721h-13.17572v16.762288c0 3.745763 1.320381 6.199238 5.347076 6.199238 2.513748-.082637 4.965535-.801098 7.126313-2.088263l2.322373 6.892203c-3.022385 1.883746-6.514756 2.87693-10.076101 2.865509-9.532966 0-12.857331-5.112966-12.857331-13.718856v-16.912119h-7.491525v-7.360424h7.491525v-11.237288h8.13767v11.237288h13.166356zm27.887203-8.2875c1.953897.009376 3.891932.351382 5.731017 1.011356l-2.481568 7.594534c-1.601403-.640505-3.313451-.95873-5.03805-.936441-5.272161 0-7.90356 3.408644-7.90356 9.532966v20.76089h-8.05339v-37.008135h7.941017v4.523008c2.013091-3.459027 5.757264-5.539522 9.757712-5.421991z"/><path d="m400.628051 41.3438559c-48.179825-48.20792977-124.147876-54.5247393-179.628051-14.9362288-42.549408-30.31595911-98.469836-34.32164299-144.9058258-10.3798729-46.43599 23.9417701-75.6062528 71.8190662-75.58849623 124.0637708-.01775657 52.244705 29.15250623 100.122002 75.58849623 124.063772 46.4359898 23.94177 102.3564178 19.936086 144.9058258-10.379873 42.549408 30.315959 98.469836 34.321643 144.905826 10.379873s75.606253-71.819067 75.588496-124.063772c.111091-37.05242-14.604124-72.6096927-40.866271-98.7476691zm-179.628051 190.3315681c-26.210964-23.215743-41.216193-56.551096-41.216193-91.56517 0-35.014073 15.005229-68.3494264 41.216193-91.5651693 26.194418 23.2253231 41.187664 56.5571253 41.187664 91.5651693 0 35.008045-14.993246 68.339847-41.187664 91.56517zm-80.871017 30.527966c-67.4198332 0-122.0744067-54.654574-122.0744067-122.074407 0-67.4198332 54.6545735-122.0744067 122.0744067-122.0744067 23.647951-.0694018 46.792402 6.8289863 66.543475 19.8338135-28.33862 26.452196-44.427691 63.4793622-44.427691 102.2452752 0 38.765914 16.089071 75.79308 44.427691 102.245276-19.75211 13.001522-42.896483 19.89663-66.543475 19.824449zm161.742034 0c-23.624995.069478-46.748036-6.815326-66.487288-19.796356 28.324807-26.465708 44.403531-63.494281 44.403531-102.259322s-16.078724-75.7936146-44.403531-102.2593222c19.751073-13.0048272 42.895523-19.9032153 66.543474-19.8338135 67.419833.000001 122.074405 54.6545743 122.074405 122.0744067 0 67.419833-54.654572 122.074406-122.074405 122.074407z"/></g></g></svg>

<svg width="750" height="471" viewBox="0 0 750 471" version="1.1" xmlns="http://www.w3.org/2000/svg" xmlns:xlink="http://www.w3.org/1999/xlink">
    <!-- Generator: Sketch 48.2 (47327) - http://www.bohemiancoding.com/sketch -->
    <desc>Created with Sketch.</desc>
    <defs></defs>
    <g id="Page-1" stroke="none" stroke-width="1" fill="none" fill-rule="evenodd">
        <g id="maestro" fill="#393939" fill-rule="nonzero">
            <path d="M697.115385,471 L52.8846154,471 C23.6904294,470.968912 0.0317962011,447.837286 0,419.293413 L0,51.7065868 C0.0317962011,23.1627144 23.6904294,0.0310879264 52.8846154,0 L697.115385,0 C726.309571,0.0310879264 749.968204,23.1627144 750,51.7065868 L750,419.293413 C749.968204,447.837286 726.309571,470.968912 697.115385,471 Z M52.8846154,28.2035928 C39.6085397,28.2035928 28.8461538,38.7262417 28.8461538,51.7065868 L28.8461538,419.293413 C28.8461538,432.273758 39.6085397,442.796407 52.8846154,442.796407 L697.115385,442.796407 C710.39146,442.796407 721.153846,432.273758 721.153846,419.293413 L721.153846,51.7065868 C721.153846,38.7262417 710.39146,28.2035928 697.115385,28.2035928 L52.8846154,28.2035928 Z" id="Shape"></path>
            <g id="Group" transform="translate(154.000000, 60.000000)">
                <path d="M132.787288,349.030169 L132.787288,325.787712 C132.787288,317.031992 127.168644,311.14178 118.225636,311.066864 C113.543432,310.991949 108.617754,312.462161 105.20911,317.621949 C102.652627,313.520339 98.6540254,311.066864 92.9698305,311.066864 C88.6426858,310.835819 84.5155042,312.908312 82.1164831,316.516949 L82.1164831,311.947119 L74.0537288,311.947119 L74.0537288,348.983347 L82.1913983,348.983347 L82.1913983,328.494025 C82.1913983,322.060678 85.7592373,318.652034 91.2561441,318.652034 C96.6032203,318.652034 99.3188983,322.135593 99.3188983,328.409746 L99.3188983,349.011441 L107.456568,349.011441 L107.456568,328.494025 C107.456568,322.060678 111.202331,318.652034 116.521314,318.652034 C122.01822,318.652034 124.658983,322.135593 124.658983,328.409746 L124.658983,349.011441 L132.787288,349.030169 Z M178.185932,330.516737 L178.185932,311.993941 L170.123178,311.993941 L170.123178,316.516949 C167.566695,313.18322 163.689831,311.094958 158.427034,311.094958 C148.041907,311.094958 139.913602,319.232627 139.913602,330.544831 C139.913602,341.857034 148.051271,349.994703 158.427034,349.994703 C163.699195,349.994703 167.566695,347.906441 170.123178,344.572712 L170.123178,349.067627 L178.185932,349.067627 L178.185932,330.516737 Z M148.219831,330.516737 C148.219831,324.008475 152.480636,318.661398 159.457119,318.661398 C166.124576,318.661398 170.610127,323.774364 170.610127,330.516737 C170.610127,337.25911 166.115212,342.372076 159.457119,342.372076 C152.461907,342.362712 148.201102,337.015636 148.201102,330.507373 L148.219831,330.516737 Z M350.60339,311.020042 C353.32525,310.993221 356.026077,311.49903 358.553771,312.508983 C360.908656,313.449782 363.056175,314.843283 364.874746,316.610593 C366.666216,318.36713 368.086497,320.465707 369.051271,322.781737 C371.060876,327.742613 371.060876,333.290861 369.051271,338.251737 C368.086497,340.567767 366.666216,342.666345 364.874746,344.422881 C363.056479,346.190573 360.908881,347.584126 358.553771,348.524492 C353.434404,350.517485 347.753647,350.517485 342.63428,348.524492 C340.283346,347.586768 338.141394,346.192748 336.332034,344.422881 C334.551378,342.661247 333.138133,340.563662 332.174237,338.251737 C330.164633,333.290861 330.164633,327.742613 332.174237,322.781737 C333.138573,320.470049 334.551762,318.372546 336.332034,316.610593 C338.14155,314.84092 340.283461,313.446928 342.63428,312.508983 C345.167813,311.496625 347.875239,310.990772 350.60339,311.020042 Z M350.60339,318.642669 C349.028503,318.629036 347.46628,318.924936 346.005466,319.513559 C344.628661,320.0664 343.379454,320.894955 342.334619,321.948305 C341.283082,323.023411 340.455497,324.296619 339.899873,325.694068 C338.714593,328.793484 338.714593,332.221261 339.899873,335.320678 C340.455052,336.718357 341.282691,337.991648 342.334619,339.066441 C343.379454,340.11979 344.628661,340.948346 346.005466,341.501186 C348.964139,342.661702 352.252005,342.661702 355.210678,341.501186 C356.591258,340.945032 357.845966,340.117052 358.900254,339.066441 C359.961081,337.995086 360.795468,336.721213 361.353729,335.320678 C362.539009,332.221261 362.539009,328.793484 361.353729,325.694068 C360.795468,324.293533 359.961081,323.019659 358.900254,321.948305 C357.845966,320.897694 356.591258,320.069714 355.210678,319.513559 C353.746947,318.923729 352.181423,318.627806 350.60339,318.642669 Z M222.030085,330.507373 C221.955169,318.961059 214.828856,311.0575 204.443729,311.0575 C193.599746,311.0575 186.005212,318.961059 186.005212,330.507373 C186.005212,342.287797 193.908771,349.957246 204.986864,349.957246 C210.605508,349.957246 215.681017,348.561949 220.175932,344.769364 L216.224153,338.804237 C213.165047,341.257383 209.375862,342.621489 205.455085,342.681102 C200.267203,342.681102 195.538178,340.283814 194.376992,333.616356 L221.880254,333.616356 C221.936441,332.605 222.030085,331.593644 222.030085,330.507373 Z M194.451907,327.257924 C195.304068,321.910847 198.553517,318.268093 204.293898,318.268093 C209.48178,318.268093 212.815508,321.517542 213.658305,327.257924 L194.451907,327.257924 Z M255.966695,321.451992 C252.448303,319.425109 248.471016,318.32926 244.411017,318.268093 C239.991017,318.268093 237.359619,319.8975 237.359619,322.603814 C237.359619,325.085381 240.168941,325.778347 243.633771,326.246568 L247.426356,326.789703 C255.48911,327.95089 260.367966,331.359534 260.367966,337.867797 C260.367966,344.919195 254.168729,349.957246 243.512034,349.957246 C237.471992,349.957246 231.890805,348.402754 227.470805,345.153305 L231.26339,338.879153 C234.817106,341.50708 239.150257,342.865724 243.56822,342.737288 C249.065127,342.737288 251.996186,341.107881 251.996186,338.242373 C251.996186,336.15411 249.907924,334.992924 245.487924,334.365508 L241.695339,333.822373 C233.407839,332.661186 228.912924,328.943517 228.912924,322.89411 C228.912924,315.533686 234.952966,311.038771 244.326737,311.038771 C250.216949,311.038771 255.564025,312.359153 259.431525,314.915636 L255.966695,321.451992 Z M294.688517,319.326271 L281.512797,319.326271 L281.512797,336.088559 C281.512797,339.834322 282.833178,342.287797 286.859873,342.287797 C289.373621,342.20516 291.825408,341.486699 293.986186,340.199534 L296.308559,347.091737 C293.286174,348.975483 289.793803,349.968667 286.232458,349.957246 C276.699492,349.957246 273.375127,344.84428 273.375127,336.23839 L273.375127,319.326271 L265.883602,319.326271 L265.883602,311.965847 L273.375127,311.965847 L273.375127,300.728559 L281.512797,300.728559 L281.512797,311.965847 L294.679153,311.965847 L294.688517,319.326271 Z M322.57572,311.038771 C324.529617,311.048147 326.467652,311.390153 328.306737,312.050127 L325.825169,319.644661 C324.223766,319.004156 322.511718,318.685931 320.787119,318.70822 C315.514958,318.70822 312.883559,322.116864 312.883559,328.241186 L312.883559,349.002076 L304.830169,349.002076 L304.830169,311.993941 L312.771186,311.993941 L312.771186,316.516949 C314.784277,313.057922 318.52845,310.977427 322.528898,311.094958 L322.57572,311.038771 Z" id="Shape"></path>
                <path d="M400.628051,41.3438559 C352.448226,-6.86407387 276.480175,-13.1808834 221,26.4076271 C178.450592,-3.90833201 122.530164,-7.91401589 76.0941742,16.0277542 C29.6581842,39.9695243 0.487921402,87.8468204 0.505677966,140.091525 C0.487921402,192.33623 29.6581842,240.213527 76.0941742,264.155297 C122.530164,288.097067 178.450592,284.091383 221,253.775424 C263.549408,284.091383 319.469836,288.097067 365.905826,264.155297 C412.341816,240.213527 441.512079,192.33623 441.494322,140.091525 C441.605413,103.039105 426.890198,67.4818323 400.628051,41.3438559 Z M221,231.675424 C194.789036,208.459681 179.783807,175.124328 179.783807,140.110254 C179.783807,105.096181 194.789036,71.7608276 221,48.5450847 C247.194418,71.7704078 262.187664,105.10221 262.187664,140.110254 C262.187664,175.118299 247.194418,208.450101 221,231.675424 Z M140.128983,262.20339 C72.7091498,262.20339 18.0545763,207.548816 18.0545763,140.128983 C18.0545763,72.7091498 72.7091498,18.0545763 140.128983,18.0545763 C163.776934,17.9851745 186.921385,24.8835626 206.672458,37.8883898 C178.333838,64.3405858 162.244767,101.367752 162.244767,140.133665 C162.244767,178.899579 178.333838,215.926745 206.672458,242.378941 C186.920348,255.380463 163.775975,262.275571 140.128983,262.20339 Z M301.871017,262.20339 C278.246022,262.272868 255.122981,255.388064 235.383729,242.407034 C263.708536,215.941326 279.78726,178.912753 279.78726,140.147712 C279.78726,101.382671 263.708536,64.3540974 235.383729,37.8883898 C255.134802,24.8835626 278.279252,17.9851745 301.927203,18.0545763 C369.347036,18.0545773 424.001608,72.7091506 424.001608,140.128983 C424.001608,207.548816 369.347036,262.203389 301.927203,262.20339 L301.871017,262.20339 Z" id="Shape"></path>
            </g>
        </g>
    </g>
</svg>
